X:152
%%topspace -50
%%musicspace -10
T:Phillibelula All the Way
M:4/4
L:1/8
K:D
f3/e/ | "D"d3/c/ d3/B/ A2 G3/F/ | "Em"E3/2E/2 F3/2G/2 "A"A2 B3/2c/2 | "D"d3/B/2 A3/B/2 d3/d/2 "A"e3/c/ | "D"d2 d2 d2 :|
d3/e/ | "D"f2 f2 "Bm"f2 g3/f/ | "Em"g3/f/ e2 "A"e4 | "Bm"d2 d2 "E7"d2 e3/d/ | "A"c3/B/ A2 "A7"A2 B3/c/ | 
"D"(3ded (3cBA "G"B3/c/ d2 | "D"(3ded (3cBA "G"B3/c/ d3/f/ | "Em"e2 (3efg "A7"a2 (3ABc | "D"d2 f2 d2 |]

